X: 91
T: No_180_Song_of_an_Old_Dance_(c).krn
N: Derived from No_180_Song_of_an_Old_Dance_(c).krn
%%abc-version 2.0
%%abcx-abcm2ps-target-version 5.9.1 (29 Sep 2008)
%%abc-creator hum2abc beta
%%abcx-conversion-date 2019/03/15 08:38:45
%%humdrum-veritas 1556505822
%%humdrum-veritas-data 3649254286
%%linebreak <none>
%%barnumbers 0
L: 1/8
M: 2/4
K: Eb clef=bass
[K:clef=bass][M:2/4]B,3/B,/ B,3/G,/ ]|:  
G,3/B,/ B,3/G,/ | 
G,F,E,2 | 
F,7/E,/ | 
E,3/G,/ G,3/E,/ ||  
[M:7/8]E,3/F,/F,3/E,/E,E,E, ||  
[M:3/4]E,6 ||  
[M:2/4]E,3/E,/ E,3/E,/ ||  
[M:5/8]F,3/E,/E,E,E, ||  
[M:2/4]F,7/E,/ | 
E,3/G,/ G,3/E,/ ||  
[M:7/8]E,3/F,/F,3/E,/E,E,E, ||  
[M:2/4]E,4 | 
E,3/B,/ B,3/G,/ :|]  
B,,3/B,,/ B,,3/F,/ ||  
[M:5/8]F,3/E,/E,E,E, ||  
[M:2/4]E,3z | 
E,3/B,/ B,3/G,/ | 
G,3/B,/ B,3/G,/ | 
G,F,E,2 | 
F,7/E,/ | 
E,3/G,/ G,3/E,/ ||  
[M:7/8]E,3/F,/F,3/E,/E,E,E, ||  
[M:2/4]E,4 |]  



